X:1
T:We’ll Work
T:William Augustine Ogden
T:We’ll Work
T:Public Domain
T:Public Domain
C:William Augustine Ogden
Z:Public Domain
%%score ( 1 2 ) ( 3 4 )
L:1/8
M:4/4
K:A
V:1 treble 
V:2 treble 
V:3 bass 
V:4 bass 
V:1
 [CE]2 | [CA]2 [CA]2 [DG]2 [EA]2 | [DB]2 [DA]2 [DF]2 (BA) | [EG]2 [^DF]2 [=DE]2 (FG) | %4
w: 1.~How|much as child- ren|we can do, To *|our love for Je- *|
w: 2.~We’ll|be to all both|kind and true, We’ll *|the sad and lone- *|
w: 3.~So|let us work with|lov- ing hands, With *|est, true en- dea- *|
 ([CA]3 [DB]) [Ec]2 [CE]2 | [CA]2 [CA]2 [DG]2 [EA]2 | [DB]2 [DA]2 [DF]2 (BA) | %7
w: For * Him who|died our souls to|save, For Him who *|
w: By * tell- ing|of the peace they’ll|find In Je- sus, *|
w: Un- * til the|Mak- er calls us|home, To dwell with *|
 [EG]2 [^DF]2 [=DE]2 (FG) | [CA]4 [CA]2 ||"^Refrain" ([CA][DB]) | [Ec]6 ([Fd][Ec]) | %11
w: ways sees us. We’ll *|we’ll work,|We’ll *|work with *|
w: Him on- ly. * *||||
w: for- ev- er. * *||||
 [DB]6 ([Ec][DB]) | [CA]2 [CA]2 [^DB]2 [FA]2 | [EG]6 [DE]2 | [CA]2 [CA]2 [DG]2 [EA]2 | %15
w: will- ing *|hand, We’ll work un-|til the|Mas- ter calls us|
w: ||||
w: ||||
 [DB]2 [DA]2 [DF]2 (BA) | [EG]2 [^DF]2 [=DE]2 (FG) | [CA]6 |] %18
w: To the prom- ised *|||
w: |||
w: |||
V:2
 x2 | x8 | x6 F2 | x6 D2 | x8 | x8 | x6 F2 | x6 D2 | x6 || x2 | x8 | x8 | x8 | x8 | x8 | x6 F2 | %16
w: ||show|sus,|||al-|work,||||||||land.|
w: ||cheer|ly,|||and||||||||||
w: ||hon-|vor,|||Him||||||||||
 x6 D2 | x6 |] %18
w: ||
w: ||
w: ||
V:3
 [A,,A,]2 | [A,,A,]2 [A,,A,]2 [B,,E,]2 [C,A,]2 | [D,F,]2 [D,F,]2 [D,F,]2 [^D,F,]2 | %3
w: ~|~ ~ ~ ~|~ ~ ~ ~|
 [E,G,]2 [E,A,]2 [E,B,]2 [E,B,]2 | A,4 A,2 [A,,A,]2 | [A,,A,]2 [A,,A,]2 [B,,E,]2 [C,A,]2 | %6
w: ~ ~ ~ ~|~ ~ ~|~ ~ ~ ~|
 [D,F,]2 [D,F,]2 [D,F,]2 [^D,F,]2 | [E,G,]2 [E,A,]2 [E,B,]2 [E,B,]2 | [A,,A,]4 [A,,A,]2 || z2 | %10
w: ~ ~ ~ ~|~ ~ ~ ~|We’ll work,||
 z2 A,2 A,2 z2 | z2 [E,G,]2 [E,G,]2 [E,G,]2 | [F,A,]2 [F,A,]2 [B,,A,]2 (F,B,) | [E,B,]6 [E,B,]2 | %14
w: we’ll work||||
 [A,,A,]2 [A,,A,]2 [B,,E,]2 [C,A,]2 | [D,F,]2 [D,F,]2 [D,F,]2 [^D,F,]2 | %16
w: ||
 [E,G,]2 [E,A,]2 [E,B,]2 E,2 | [A,,E,]6 |] %18
w: ||
V:4
 x2 | x8 | x8 | x8 | A,4 A,2 x2 | x8 | x8 | x8 | x6 || x2 | x2 A,2 A,2 x2 | x8 | x6 B,,2 | x8 | %14
w: ||||~ ~||||||||||
 x8 | x8 | x6 E,2 | x6 |] %18
w: ||||

